X:1
T:Title
%%score { ( 1 3 5 ) | ( 2 4 ) }
L:1/8
M:4/4
K:G
V:1 treble nm="Grand Piano"
V:3 treble 
V:5 treble 
V:2 treble 
V:4 treble 
V:1
 z4 z2[Q:1/4=116] G2 | B3 A G3 B | d2 d2 B2 G2 | [CFA]3 [B,G] [CFA]2 [DFB]2 |[M:3/4] G6 | %5
[M:1/4] G2 |[M:4/4] B3 A G3 B | d2 d2 B2 G2 | [CFA]3 [B,G] [CFA]2 [DFB]2 |[M:3/4] [B,G]6 | %10
[M:11/32] [Bd]/4-[Bd]/4-[Bd]/4-[Bd]/4-[Bd]/4-[Bd]/4-[Bd]/-<[Bd]/ z/4 | %11
[M:4/4] [GB]3- [GB]/4 z/4 z/ D4 | (3:2:2[G,CE]3 [G,CG]3 D3- D/4 z/4 z/ | z4 (3:2:2[DB]3 [Gd]3 | %14
[M:3/4] [FA]6 |[M:1/4] (3:2:2d2 c |[M:4/4] (3:2:2B4 A2 z4 |[M:9/8] z3 z3 z z z/ A/ | %18
[M:4/4] (3:2:2[GB]3 [Gd]3 z4 |[M:3/4] G6 |] %20
V:2
 z4 z2 [G,B,D]2 | [G,D]3 [G,CD] [G,B,D]3 [G,DG] | [G,B,G]2 [G,B,G]2 [G,DG]2[K:bass] [G,B,D]2 | %3
 D,3 D, D,2 D,2 |[M:3/4] [G,B,]6 |[M:1/4][K:treble] [G,B,D]2 | %6
[M:4/4] [G,D]3 [G,CD] [G,B,D]3 [G,DG] | [G,B,G]2 [G,B,G]2 [G,DG]2[K:bass] [G,B,D]2 | %8
 D,3 D, D,2 D,2 |[M:3/4] G,6 |[M:11/32] G,/4-G,/4-G,/4-G,/4-G,/-<G,/G,3/4 | %11
[M:4/4] z4 G,3- G,/4 z/4 z/ | z4 (3:2:2G,4 G,2 | z4 (3:2:2[G,,G,]3 [B,,G,]3 |[M:3/4] [D,D]6 | %15
[M:1/4] [D,D]2 |[M:4/4][K:treble] [DG]3- [DG]/4 z/4 z/[K:bass] G,3 G, | %17
[M:9/8] [G,C]2 G,- G, [G,B,]2- [G,B,]-[G,B,]/4 z/4 z/ z |[M:4/4] z4 (3:2:2[D,C]3 [D,D]3 | %19
[M:3/4] [G,B,]6 |] %20
V:3
 x8 | x8 | x8 | x8 |[M:3/4] x6 |[M:1/4] x2 |[M:4/4] x8 | x8 | x8 |[M:3/4] x6 | %10
[M:11/32] D/4-D/4-D/4-D/4-D/-<D/[DAc]3/4 |[M:4/4] (3:2:2D4 [CDA]2 [B,G]3- [G,-B,D-F-G]/<[G,DF]/ | %12
 z4 (3:2:2B,4 [B,D]2 | (3:2:2[G,DG]3 [G,DG]3 z4 |[M:3/4] x6 |[M:1/4] F2 |[M:4/4] z4 z2 z [DF]- | %17
[M:9/8] [DF]3/4 z/4 z G- G-G/4 z/4 z/ z z G2 |[M:4/4] z4 (3:2:2[FA]3 [FB]3 |[M:3/4] x6 |] %20
V:4
 x8 | x8 | x6[K:bass] x2 | x8 |[M:3/4] x6 |[M:1/4][K:treble] x2 |[M:4/4] x8 | x6[K:bass] x2 | x8 | %9
[M:3/4] x6 |[M:11/32] x11/4 |[M:4/4] (3:2:2G,4 G,2 z2 z B,, | (3:2:2C,3 E,3 z4 | %13
 (3:2:2B,,3 B,,3 z4 |[M:3/4] x6 |[M:1/4] x2 | %16
[M:4/4][K:treble] (3:2:2G,4 [G,CD]2[K:bass] [B,D]3- [B,,-B,D]/<B,,/- | %17
[M:9/8] [B,,C,-]/>C,/-C,-[C,E,-C-]/<[E,C]/- [E,C]-[E,C]/4 z/4 z/ z z [E,^C]2 | %18
[M:4/4] (3:2:2[D,D]3 [D,B,]3 z4 |[M:3/4] x6 |] %20
V:5
 x8 | x8 | x8 | x8 |[M:3/4] x6 |[M:1/4] x2 |[M:4/4] x8 | x8 | x8 |[M:3/4] x6 |[M:11/32] x11/4 | %11
[M:4/4] x8 | x8 | x8 |[M:3/4] x6 |[M:1/4] x2 |[M:4/4] z4 G3- G/4 z/4 z/ | %17
[M:9/8] E2- E/4 z/4 z/ z D2- D-D/4 z/4 z/ z |[M:4/4] x8 |[M:3/4] x6 |] %20

